X:1
T:Eilidh Catherine's Waltz
C:Iain Gelston 2010
L:1/8
M:3/4
K:G
(3G,A,B,|D2 DE DB,|A,3 B, D2|E2 ED E<F|G3 D GA|B2 G2 B2|A2 F2 A2|GF ED B,G,|A,4 (3G,A,B,|
D2 DE DB,|A,3 B, D2|E2 ED E<F|G3 D GA|B2 G2 B2|A2 F2 A2|G cB AF|G4 Bc||
d2 g2 d2|e2 c2 A2|d2 dB GB|A2 F2 D2|d2 g2 dg|e2 c2 A2|d2 dB GB|A4 (3G,A,B,|
D2 DE DB,|A,3 B, D2|E2 ED E<F|G3 D GA|B2 G2 B2|A2 F2 A2|G2 cB AF|G4 ||



